X:1
T:Toglietemi la vita ancor
T:Alessandro scarlatti (1660-1725)
T:Toglietemi la vita ancor
T:Toglietemi la vita ancor, crudeli cieli, se mi volete rapire il cor.
C:Alessandro scarlatti (1660-1725)
%%score 1 { ( 2 4 ) | ( 3 5 ) }
L:1/8
Q:1/4=54
M:4/4
K:Bb
V:1 treble-8 transpose=-12 nm="Tenor"
V:2 treble nm="Piano"
V:4 treble 
V:3 bass 
V:5 bass 
V:1
"^And. APPASIONATO""^te" z4 | z2 z!mf!!<(! D"^quasi a piacere" G/A/G/A/ B!<)!G |"^ten." d2 z2 z4 | %3
w: |To- glie- te- mi la vi- ta|cor,|
 z2!f! z"^a tempo" D G/A/G/A/ BG | !>!d2 z!p! (d ed !>!c2 | B2) z2 z2 z B | %6
w: To- glie- te- mi la vi- ta|cor, cru- de- li cie-|li, cru-|
!>(! (cB _A2!>)!"^cresc." G)!<(!^FG!<)!=A |!>(! B^F!>)! z2 z!f!!<(! FG!<)!A | %8
w: de- li cie- li, se mi vo-|le- te, se mi vo-|
 Bc/>!>(!d/ B>"^dim."A!>)! G2 z2 | z!<(! ^CD=E (F!<)!!>(!!>!A/)!>!G/ F>!>)!E | D2 z2 z4 | %11
w: le- te ra- pi- re cor,|se mi vo- te- te ra- pi- re|cor.|
 z2 z D G/A/G/A/ BG | !>!d2 z2 z4 |!mf! z!>(! d e>d!>)! c4 | z B{/d} c>B _A2 z2 | %15
w: To- glie- te- mi la vi- ta|cor,|tog- lie- te- mi,|to- * te- mi,|
"^cresc." z ^FG=A B (c/>d/) B>A |"^rit." !>!G2 z2!pp! z"^poco a poco ritard."!<(! ^F G>A!<)! | %17
w: tog- lie- te- mi la _ vi- ta|cor, to glie- te-|
 (B({cBAB} d/)(c/) !>!!fermata!B>)"^morendo"(^F G2) z2 |] %18
w: mi * * vi- ta ancor.|
V:2
!mf! !arpeggio![B,DG]2 [G,CEG]2 | [G,B,DG]2 z2 z4 | z4[K:bass]!mp!!<(! B,/C/B,/C/!<)! DB, | %3
 [D,^F,A,]2 z2[K:treble]"^a tempo" [G,DG] z [B,DG] z | %4
 [A,D^F] z z!p!!>(! ([Fd][Ge][=Fd])!>)! !>![Ec]2 | %5
!mf!!>(! .[DB](D[B,G][DF]) ((!>![CE]2!>)! [B,D]))!p![DB] | %6
 ([Ec][DB] [C_A]2"^cresc." .[B,G])([CD]!<(! [B,D]!<)![CD]) | %7
!>(! .[B,D]([D^F][DG]!>)![DFA]) ([DGB][A,F][B,G][CFA]) | %8
 [DGB]!>(!([EGc][DGB][C^FA])!>)! .[B,G]([A,^C][A,D][A,C=E]) | %9
 [A,DF](^C[A,D][C=E] [DF])(([B,DA]/G/)) [A,DF][G,CE] | [F,A,D]2 z2 (B/c/B/c/ dB) | %11
 [D^FA]2 z2 ([B,DG]>A [B,DB][CG]) | [A,D^F]2 z D G/A/G/A/ BG | %13
 !wedge![D^FAd]!>(!([Fd][Ge]>[=Fd]!>)! [Ec]) [CE][DF]>[CE] | [B,D][DB] [Ec]>[DB] (_A4 | %15
 G)([CD^F][B,DG][CDA] .[B,DB])([EGc][DGB][CFA]) | !>![B,EG]2 z2!pp! z!<(! ([A,D^F] [B,DG][CDFA] | %17
 .[DGB])[EGc]!<)!!fermata![DGB][C^FA] [B,DG]2 z2 |] %18
V:3
 [G,,D,G,]2 [C,,G,,C,]2 | [G,,,G,,]2 z2 z4 | z2 z D,, G,,/A,,/G,,/A,,/ B,,G,, | %3
 [D,,A,,]2 z/ D,/C,/D,/ B,, z G,, z | D,, z z2 z2 z !>!G,- | G, z !>!G,2- G,^F,G, z | %6
 !>!G,2- G,^F, G,=A,G,F, | !wedge!G,^F,/C/ B,A, !wedge!G,D,/C,/B,,A,, | %8
 .G,,C,D,"^dim."D,, .G,,A,=F,=E, | x =E,F,G, .D,,G,,A,,A,,, | D,,2 z C, G,/A,/G,/A,/ B,G, | %11
 D,2 z/ D,/C,/D,/ B,,>A,, G,,E,, | D,,2 z2 B,, z G,, z | D,, z z2 z!mf! G,3- | G, !>!G,3 G,2 ^F,2 | %15
 .G,"^cresc." =A,,G,,^F,, .G,,C,D,D,, | !>!E,,2 z2 z D,/C,/ B,,A,, | %17
 .G,,C,"^col canto"!fermata!D,-[D,,D,] [G,,G,]2 z2 |] %18
V:4
 x4 | x8 | z4[K:bass] D,2- [D,G,]2 | x7/2[K:treble] x9/2 | x8 | x8 | x8 | x8 | x8 | x8 | %10
 x4 D2- [DG]2 | x8 | z4 [G,D]2 [DG]2 | x8 | x4 C(C D>C) | B, x7 | x8 | x8 |] %18
V:5
 x4 | x8 | x8 | x8 | x8 | x8 | x8 | x8 | x8 | D,A,,/G,,/ F,,=E,, x4 | x4 x4 | x8 | x8 | x8 | x8 | %15
 x8 | x8 | x8 |] %18

